X:23
T:Mrs. Small of Dirnanean's Jigg
C:Robert Petrie
S:Petrie's Collection of Strathspey Reels and Country Dances &c., 1790
Z:Steve Wyrick , 2/27/04
N:Petrie's First Collection, page 11
L:1/8
M:6/8
R:Jig
K:D
A,|D2D  DCD|E2E EFG|FGA  ABc|dec  dAF     |
   D2D TDCD|E2E EFG|FGA  Bcd|edc [F2A2d2]:|
A |d2d  def|B2B B2c|dcB  AGF|EFD  CB,A,   |
   d2d  def|B2B Bcd|ege TcBc|d3-d2  c     |
   d2d  def|B2B Bcd|dcB  AGF|EFD  CB,A,   |
   B,3  C3 |D2E F2G|ABG  FGE|D2D  D2     |]
